static/img/xr/Slider_24_Anatomy.svg

<svg fill="none" height="52" viewBox="0 0 200 52" width="200" xmlns="http://www.w3.org/2000/svg"><rect fill="#89c6ed" height="2" rx="1" width="144" x="28" y="23"/><rect fill="#cbcdd6" height="24" rx="8" width="20" x="90" y="12"/><path d="m101.607 25.4267c-.067-.58-.2-1.1533-.414-1.6933-.465.1834-.973.2332-1.4652.1437-.4923-.0895-.9499-.3148-1.3211-.6504-.5533.5733-1.0467 1.2067-1.48 1.8733 1.2733 1.04 3.3663 1.3134 4.6803.3267zm-3.187-3.0733c.3934-.3667.82-.7067 1.2667-1.0067-.4055-.3728-.8815-.6607-1.4-.8467-.3733.58-.32 1.34.1333 1.86m1.727-1.3466c.306-.2267.633-.4067.986-.5467-.308-.3-.7-.4984-1.125-.5688-.4239-.0703-.8595-.0091-1.248.1755.5134.2266.9867.5466 1.393.94m-4.173-.6467c-.8933 1.2667-.4733 3.1133.56 4.2733.4433-.6758.9477-1.3096 1.5067-1.8933-.5733-.6667-.6867-1.6133-.2667-2.3933-.5933-.1467-1.2133-.14-1.8.0133zm1.8-.0133 3.66 2.4733c.44-.56.447-1.3467.02-1.9133-.333.1333-.64.32-.92.54.353.42.66.88.9 1.3733m-3.2866-3.0467c.3933-.28.86-.4333 1.34-.4466-.9867-.1667-2-.0534-2.9267.3333.5333-.06 1.0733-.02 1.5867.1133zm2.8466 3.3934c-.24-.5067-.547-.9734-.907-1.3934-.453.3-.8796.64-1.2796 1.0067.6.5267 1.4466.68 2.1866.3867zm1.3-1.4067c.087.6133-.153 1.2267-.627 1.6333.194.4934.34 1 .427 1.52.31-.4605.492-.9953.528-1.5495.035-.5542-.078-1.1078-.328-1.6038zm-.113 3.94c.013.38 0 .7667-.054 1.1467.702-.8996 1.04-2.0298.947-3.1667-.067.7533-.38 1.46-.893 2.02zm3.833-1.6933-2.647-1.5334c.314 1 .307 2.0667-.013 3.0667zm-9.36 1.66c-.3866.6333-.6733 1.3266-.84 2.0533.8087.6094 1.7981.9306 2.8106.9125 1.0124-.0181 1.9894-.3746 2.7764-1.0125.18-.4667.266-.9667.253-1.4667-.792.409-1.6848.5806-2.5718.4943-.8869-.0863-1.7301-.427-2.4282-.9809zm-.4133-.48c-.5242-.5337-.9048-1.1914-1.1065-1.9117-.2016-.7204-.2178-1.4801-.0468-2.2083-.7368.869-1.1185 1.984-1.0691 3.1222s.5264 2.2159 1.3357 3.0178c.2067-.7134.5067-1.3934.8934-2.02m1.2066-6.3267-2.6333-1.5133v3.0333c.7014-.7631 1.6209-1.2915 2.6333-1.5133zm-2.6333 11.8067 2.6533-1.5334c-1.0199-.2212-1.9466-.752-2.6533-1.52z" fill="#252a2e"/><g fill="#89c6ed"><circle cx="29" cy="41" r="1"/><circle cx="39.1428" cy="41" r="1"/><circle cx="49.2858" cy="41" r="1"/><circle cx="59.4286" cy="41" r="1"/><circle cx="69.5714" cy="41" r="1"/><circle cx="79.7142" cy="41" r="1"/><circle cx="89.8572" cy="41" r="1"/><circle cx="100" cy="41" r="1"/><circle cx="110.143" cy="41" r="1"/><circle cx="120.286" cy="41" r="1"/><circle cx="130.429" cy="41" r="1"/><circle cx="140.571" cy="41" r="1"/><circle cx="150.714" cy="41" r="1"/><circle cx="160.857" cy="41" r="1"/><circle cx="171" cy="41" r="1"/><path d="m16.25 8.25h73.5v35.5h-73.5z" fill-opacity=".5" stroke="#fff" stroke-width=".5"/><path d="m110.25 8.25h73.5v35.5h-73.5z" fill-opacity=".5" stroke="#fff" stroke-width=".5"/><path d="m90.25 12.25h19.5v23.5h-19.5z" fill-opacity=".5" stroke="#fff" stroke-width=".5"/></g><path d="m0 8h7.99999v200h-7.99999z" fill="#ff95f8" fill-opacity=".5" transform="matrix(0 -1 1 0 -8 8)"/><path d="m16 44h16v36h-16z" fill="#ff95f8" fill-opacity=".5" transform="matrix(-1 0 0 -1 32 88)"/><path d="m200 44h16v36h-16z" fill="#ff95f8" fill-opacity=".5" transform="matrix(-1 0 0 -1 400 88)"/><path d="m0 52h7.99999v200h-7.99999z" fill="#ff95f8" fill-opacity=".5" transform="matrix(0 -1 1 0 -52 52)"/></svg>

<svg width="200" height="52" viewBox="0 0 200 52" fill="none" xmlns="http://www.w3.org/2000/svg">
<rect x="28" y="23" width="144" height="2" rx="1" fill="#89C6ED"/>
<rect x="90" y="12" width="20" height="24" rx="8" fill="#CBCDD6"/>
<path d="M101.607 25.4267C101.54 24.8467 101.407 24.2734 101.193 23.7334C100.728 23.9168 100.22 23.9666 99.7278 23.8771C99.2355 23.7876 98.7779 23.5623 98.4067 23.2267C97.8534 23.8 97.36 24.4334 96.9267 25.1C98.2 26.14 100.293 26.4134 101.607 25.4267ZM98.42 22.3534C98.8134 21.9867 99.24 21.6467 99.6867 21.3467C99.2812 20.9739 98.8052 20.686 98.2867 20.5C97.9134 21.08 97.9667 21.84 98.42 22.36M100.147 21.0134C100.453 20.7867 100.78 20.6067 101.133 20.4667C100.825 20.1667 100.433 19.9683 100.008 19.8979C99.5841 19.8276 99.1485 19.8888 98.76 20.0734C99.2734 20.3 99.7467 20.62 100.153 21.0134M95.98 20.3667C95.0867 21.6334 95.5067 23.48 96.54 24.64C96.9833 23.9642 97.4877 23.3304 98.0467 22.7467C97.4734 22.08 97.36 21.1334 97.78 20.3534C97.1867 20.2067 96.5667 20.2134 95.98 20.3667ZM97.78 20.3534L101.44 22.8267C101.88 22.2667 101.887 21.48 101.46 20.9134C101.127 21.0467 100.82 21.2334 100.54 21.4534C100.893 21.8734 101.2 22.3334 101.44 22.8267M98.1534 19.78C98.5467 19.5 99.0134 19.3467 99.4934 19.3334C98.5067 19.1667 97.4934 19.28 96.5667 19.6667C97.1 19.6067 97.64 19.6467 98.1534 19.78ZM101 23.1734C100.76 22.6667 100.453 22.2 100.093 21.78C99.64 22.08 99.2134 22.42 98.8134 22.7867C99.4134 23.3134 100.26 23.4667 101 23.1734ZM102.3 21.7667C102.387 22.38 102.147 22.9934 101.673 23.4C101.867 23.8934 102.013 24.4 102.1 24.92C102.41 24.4595 102.592 23.9247 102.628 23.3705C102.663 22.8163 102.55 22.2627 102.3 21.7667ZM102.187 25.7067C102.2 26.0867 102.187 26.4734 102.133 26.8534C102.835 25.9538 103.173 24.8236 103.08 23.6867C103.013 24.44 102.7 25.1467 102.187 25.7067ZM106.02 24.0134L103.373 22.48C103.687 23.48 103.68 24.5467 103.36 25.5467L106.02 24.0134ZM96.66 25.6734C96.2734 26.3067 95.9867 27 95.82 27.7267C96.6287 28.3361 97.6181 28.6573 98.6306 28.6392C99.643 28.6211 100.62 28.2646 101.407 27.6267C101.587 27.16 101.673 26.66 101.66 26.16C100.868 26.569 99.9752 26.7406 99.0882 26.6543C98.2013 26.568 97.3581 26.2273 96.66 25.6734ZM96.2467 25.1934C95.7225 24.6597 95.3419 24.002 95.1402 23.2817C94.9386 22.5613 94.9224 21.8016 95.0934 21.0734C94.3566 21.9424 93.9749 23.0574 94.0243 24.1956C94.0737 25.3338 94.5507 26.4115 95.36 27.2134C95.5667 26.5 95.8667 25.82 96.2534 25.1934M97.46 18.8667L94.8267 17.3534V20.3867C95.5281 19.6236 96.4476 19.0952 97.46 18.8734V18.8667ZM94.8267 30.6734L97.48 29.14C96.4601 28.9188 95.5334 28.388 94.8267 27.62V30.6734Z" fill="#252A2E"/>
<circle cx="29" cy="41" r="1" fill="#89C6ED"/>
<circle cx="39.1428" cy="41" r="1" fill="#89C6ED"/>
<circle cx="49.2858" cy="41" r="1" fill="#89C6ED"/>
<circle cx="59.4286" cy="41" r="1" fill="#89C6ED"/>
<circle cx="69.5714" cy="41" r="1" fill="#89C6ED"/>
<circle cx="79.7142" cy="41" r="1" fill="#89C6ED"/>
<circle cx="89.8572" cy="41" r="1" fill="#89C6ED"/>
<circle cx="100" cy="41" r="1" fill="#89C6ED"/>
<circle cx="110.143" cy="41" r="1" fill="#89C6ED"/>
<circle cx="120.286" cy="41" r="1" fill="#89C6ED"/>
<circle cx="130.429" cy="41" r="1" fill="#89C6ED"/>
<circle cx="140.571" cy="41" r="1" fill="#89C6ED"/>
<circle cx="150.714" cy="41" r="1" fill="#89C6ED"/>
<circle cx="160.857" cy="41" r="1" fill="#89C6ED"/>
<circle cx="171" cy="41" r="1" fill="#89C6ED"/>
<path d="M16.25 8.25H89.75V43.75H16.25V8.25Z" fill="#89C6ED" fill-opacity="0.5" stroke="white" stroke-width="0.5"/>
<path d="M110.25 8.25H183.75V43.75H110.25V8.25Z" fill="#89C6ED" fill-opacity="0.5" stroke="white" stroke-width="0.5"/>
<path d="M90.25 12.25H109.75V35.75H90.25V12.25Z" fill="#89C6ED" fill-opacity="0.5" stroke="white" stroke-width="0.5"/>
<rect y="8" width="7.99999" height="200" transform="rotate(-90 0 8)" fill="#FF95F8" fill-opacity="0.5"/>
<rect x="16" y="44" width="16" height="36" transform="rotate(180 16 44)" fill="#FF95F8" fill-opacity="0.5"/>
<rect x="200" y="44" width="16" height="36" transform="rotate(180 200 44)" fill="#FF95F8" fill-opacity="0.5"/>
<rect y="52" width="7.99999" height="200" transform="rotate(-90 0 52)" fill="#FF95F8" fill-opacity="0.5"/>
</svg>
